images/email.svg

<svg height="16" viewBox="0 0 20 16" width="20" xmlns="http://www.w3.org/2000/svg"><path d="m18 0h-16c-1.1 0-1.99.9-1.99 2l-.01 12c0 1.1.9 2 2 2h16c1.1 0 2-.9 2-2v-12c0-1.1-.9-2-2-2zm0 4-8 5-8-5v-2l8 5 8-5z" fill="#999"/></svg>

<?xml version="1.0" encoding="UTF-8"?>
<svg width="20px" height="16px" viewBox="0 0 20 16" version="1.1" xmlns="http://www.w3.org/2000/svg" xmlns:xlink="http://www.w3.org/1999/xlink">
    <!-- Generator: Sketch 47.1 (45422) - http://www.bohemiancoding.com/sketch -->
    <title>email</title>
    <desc>Created with Sketch.</desc>
    <defs></defs>
    <g id="Page-1" stroke="none" stroke-width="1" fill="none" fill-rule="evenodd">
        <g id="Home-page" transform="translate(-250.000000, -1273.000000)" fill-rule="nonzero" fill="#999999">
            <g id="Group-10" transform="translate(250.000000, 1230.000000)">
                <g id="email" transform="translate(0.000000, 43.000000)">
                    <path d="M18,0 L2,0 C0.9,0 0.01,0.9 0.01,2 L0,14 C0,15.1 0.9,16 2,16 L18,16 C19.1,16 20,15.1 20,14 L20,2 C20,0.9 19.1,0 18,0 Z M18,4 L10,9 L2,4 L2,2 L10,7 L18,2 L18,4 Z" id="Shape"></path>
                </g>
            </g>
        </g>
    </g>
</svg>
